X: 29
T: Original Rags
C: Scott Joplin
%%abc-version 2.0
%%abcx-abcm2ps-target-version 5.9.1 (29 Sep 2008)
%%abc-creator hum2abc beta
%%abcx-conversion-date 2021/07/20 09:00:57
%%abc-copyright 2021 Craig Stuart Sapp
%%abc-edited-by Craig Stuart Sapp
%%abc-edited-by Craig Stuart Sapp
%%abcx-initial-encoding-date 2004/11/28
%%humdrum-veritas 162621269
%%humdrum-veritas-data 3304091397
%%removed 0's from note length
%%linebreak <none>
%%barnumbers 0
L: 1/8
M: 2/4
N: Derived from original.krn
Q: 1/4=88
%%staves {1 2}
V: 1 clef=treble
V: 2 clef=bass
K: G
[V:1] [^a'/^a/][b'b][a'/a/] [b'b][a'/a/][b'/b/] | 
[V:2] [^A/^A,/][BB,][A/A,/] [BB,][A/A,/][B/B,/] | 
[V:1] [f'/f/][g'g][e'/e/]-[e'2e2] | 
[V:2] [F/F,/][GG,][E/E,/]-[E2E,2] | 
[V:1] [f'/f/][g'g][f'/f/] [g'g][f'/f/][g'/g/] | 
[V:2] [F/F,/][GG,][F/F,/] [GG,][F/F,/][G/G,/] | 
[V:1] [^c'/^c/][d'd][b/B/]-[b2B2] | 
[V:2] [^C/^C,/][DD,][B,/B,,/]-[B,2B,,2] | 
[V:1] [c'/e/c/][c'ec][c'/e/c/] [c'_ec][c'ec] | 
[V:2] A/AA/ GG | 
[V:1] [c'dc] {/^G} A!accent!D2 | 
[V:2] F {/^G,} A,!accent!D,2 | 
[V:1] [c/E/C/][cEC][c/E/C/] [c_EC][cEC] | 
[V:2] A,/A,A,/ G,G, | 
[V:1] [cDC] z z/ d/g/b/ ]|:  
[V:2] F,[A,A,,]!accent![D,2D,,2] ]|:  
[V:1] [d'/d/]g/b/[d'/d/]- [d'/d/]b/[d'/d/]b/ | 
[V:2] G,[DB,] D,[DB,] | 
[V:1] [d'/d/]g/b/[d'/d/]- [d'/d/]b/[d'/d/]b/ | 
[V:2] G,[DB,] D,[DB,] | 
[V:1] [e'/e/][e'e][g/e/] [a/e/][g/e/][a_e] | 
[V:2] C,[ECG,] C,[_ECG,] | 
[V:1] !accent![b2d2]z/ d/g/b/ | 
[V:2] [G,G,,][DB,G,] D, z | 
[V:1] [d'/d/]g/b/[d'/d/]- [d'/d/]b/[d'/d/]b/ | 
[V:2] G,[DB,] D,[DB,] | 
[V:1] [d'/d/]g/b/[d'/d/]- [d'/d/]b/[d'/d/]b/ | 
[V:2] G,[DB,] D,[DB,] | 
[V:1] [b^c][ac]- [ac][^g/c/][a/c/] | 
[V:2] E,[^CA,G,] A,,[CA,G,] | 
[V:1] [b/=c/][ac][f/c/] !accent![ec]!accent![dc] | 
[V:2] D,/F,A,/ !accent!G,!accent!F, | 
[V:1] [d'/d/]g/b/[d'/d/]- [d'/d/]b/[d'/d/]b/ | 
[V:2] G,[DB,] D,[DB,] | 
[V:1] [d'/d/]g/b/[d'/d/]- [d'/d/]b/[d'/d/]b/ | 
[V:2] G,[DB,] D,[DB,] | 
[V:1] [e'/e/][e'e][g/e/] [a/e/][g/e/][ae] | 
[V:2] C,[ECG,] C,[ECG,] | 
[V:1] [b2^d2]z [bB] | 
[V:2] B,,[B,A,F,] [B,A,F,] z | 
[V:1] [e'/e/][d'd][b/B/] [c'c][bB] | 
[V:2] ^G,,[DB,E,] E,,[D^G,E,] | 
[V:1] [b/B/][aA][e/E/] [bB][aA] | 
[V:2] A,,[ECA,] A,,[_ECA,] | 
[V:1] [b/d/B/][acA][b/d/B/] [c'/e/c/][b/d/B/][acA] |[1 
[V:2] D,[DB,G,] [D,/D,,/][E,/E,,/][F,F,,] | 
[V:1] [gBG] z z/ d/g/b/ :|][2 
[V:2] [G,G,,] z !accent![D,D,,] z :|]  
[V:1] [gBG] z[g'2d'2b2g2] ]|: 
[V:2] [G,G,,] z!accent![G,,2G,,,2] ]|:  
[V:1] [^a/f/][bg][a/f/] [bg][a/f/][b/g/] | 
[V:2] z4 | 
[V:1] [f/^d/][ge][e/c/]-[e2c2] | 
[V:2] C,[ECG,] C,[ECG,] | 
[V:1] [f/^d/][ge][f/d/] [ge][f/d/][g/e/] | 
[V:2] C,[ECG,] C,[ECG,] | 
[V:1] [^c/^A/][dB][B/G/]-[B2G2] | 
[V:2] G,[DB,] D,[DB,] | 
[V:1] [^c/^A/][dB][c/A/] [dB][c/A/][d/B/] | 
[V:2] G,[DB,] D,[DB,] | 
[V:1] [BG]B/G/ G/B/G | 
[V:2] !accent!G,!accent!F,!accent!E,!accent!D, | 
[V:1] [^c/^A/][dB][c/A/] [dB][c/A/][d/B/] | 
[V:2] G,[DB,] D,[DB,] | 
[V:1] [BG]B/G/- G/B/G | 
[V:2] G,F,E,D, | 
[V:1] [^a/f/][bg][a/f/] [bg][a/f/][b/g/] | 
[V:2] G,[DB,] D,[DB,] | 
[V:1] [f/^d/][ge][e/c/]-[e2c2] | 
[V:2] C,[ECG,] C,[ECG,] | 
[V:1] [f/^d/][ge][f/d/] [ge][f/d/][g/e/] | 
[V:2] C,[ECG,] C,[ECG,] | 
[V:1] [^c/^A/][dB][B/G/]-[B2G2] | 
[V:2] G,[DB,] D,[DB,] | 
[V:1] [A/G/E/][AGE][A/G/E/] [e^AG][eAG] | 
[V:2] !accent![C2C,2]!accent![^C2^C,2] | 
[V:1] [d/B/G/]ge/ d/B/G | 
[V:2] D,[DB,G,]!accent![D2B,2G,2] | 
[V:1] [A/C/][B/D/][c/E/][B/D/]- [B/D/][AC][B/D/] | 
[V:2] !accent![A,2A,,2]!accent![D,2D,,2] | 
[V:1] [GB,] z!accent![g2d2B2G2] :|]|:  
[V:2] [G,G,,] z!accent![G,,2G,,,2] :|]|:  
[V:1]  [K:C] g/a/g/e/ f/de/ | 
[V:2]  [K:C] C,[ECG,] D,[FB,G,] | 
[V:1] f/g/a/e/ f/de/ | 
[V:2] G,,[FB,G,] D,[FB,G,] | 
[V:1] c/e/g/[a/e/c/]-[a2e2c2] | 
[V:2] C,[ECG,] G,,[ECG,] | 
[V:1] z/ c/e/g/ a/g/e/c/ | 
[V:2] C,[ECG,] E,[ECG,] | 
[V:1] B/d/f/[a/d/B/]-[a2d2B2] | 
[V:2] D,[FB,G,] G,,[FB,G,] | 
[V:1] z/ B/d/f/ a/f/d/B/ | 
[V:2] D,[FB,G,] G,,[FB,G,] | 
[V:1] c/e/g/[c'/c/] [b^dB][adA] | 
[V:2] C,[ECG,] [^DC^F,][DCF,] | 
[V:1] [geG]G/A/ B/c/d/e/ | 
[V:2] [ECG,] zz2 | 
[V:1] g/a/g/e/ f/de/ | 
[V:2] C,[ECG,] D,[FB,G,] | 
[V:1] f/g/a/e/ f/de/ | 
[V:2] G,,[FB,G,] D,[FB,G,] | 
[V:1] c/e/g/[a/e/c/]-[a2e2c2] | 
[V:2] C,[ECG,] G,,[ECG,] | 
[V:1] z [c'c] [bB][_b_B] | 
[V:2] C,[ECG,] [ECG,][ECG,] | 
[V:1] A/^c/e/[a/A/] !accent![_b_B]!accent![aA] | 
[V:2] A,,[G^CA,] A,,[GCA,] | 
[V:1] d/f/a/[d'/d/] [e'e][d'd] | 
[V:2] D,[FDA,] F,[DC_A,] | 
[V:1] [c'/c/]e/^d/e/ [afB][gfB] | 
[V:2] G,[EC] G,,[FB,G,] | 
[V:1] [cGE][gdBG]!accent![c'2g2e2c2] :|]  
[V:2] C,G,,!accent![C,2C,,2] :|]  
[V:1]  [K:G] [c'/e/c/][c'ec][c'/e/c/] [c'_ec][c'ec] | 
[V:2]  [K:G] A/AA/ GG | 
[V:1] [c'dc] {/^G} A!accent!D2 | 
[V:2] F {/^G,} A,!accent!D,2 | 
[V:1] [c/E/C/][cEC][c/E/C/] [c_EC][cEC] | 
[V:2] A,/A,A,/ G,G, | 
[V:1] [cDC] z z/ d/g/b/ ||  
[V:2] F,[A,A,,]!accent![D,2D,,2] ||  
[V:1] [d'/d/]g/b/[d'/d/]- [d'/d/]b/[d'/d/]b/ | 
[V:2] G,[DB,] D,[DB,] | 
[V:1] [d'/d/]g/b/[d'/d/]- [d'/d/]b/[d'/d/]b/ | 
[V:2] G,[DB,] D,[DB,] | 
[V:1] [e'/e/][e'e][g/e/] [a/e/][g/e/][a_e] | 
[V:2] C,[ECG,] C,[_ECG,] | 
[V:1] [b2d2]z/ d/g/b/ | 
[V:2] [G,G,,][DB,G,] D, z | 
[V:1] [d'/d/]g/b/[d'/d/]- [d'/d/]b/[d'/d/]b/ | 
[V:2] G,[DB,] D,[DB,] | 
[V:1] [d'/d/]g/b/[d'/d/]- [d'/d/]b/[d'/d/]b/ | 
[V:2] G,[DB,] D,[DB,] | 
[V:1] [b^c][ac]- [ac][^g/c/][a/c/] | 
[V:2] E,[^CA,G,] A,,[CA,G,] | 
[V:1] [b/=c/][ac][f/c/] !accent![ec]!accent![dc] | 
[V:2] D,/F,A,/ !accent!G,!accent!F, | 
[V:1] [d'/d/]g/b/[d'/d/]- [d'/d/]b/[d'/d/]b/ | 
[V:2] G,[DB,] D,[DB,] | 
[V:1] [d'/d/]g/b/[d'/d/]- [d'/d/]b/[d'/d/]b/ | 
[V:2] G,[DB,] D,[DB,] | 
[V:1] [e'/e/][e'e][g/e/] [a/e/][g/e/][ae] | 
[V:2] C,[ECG,] C,[ECG,] | 
[V:1] !accent![b2^d2]z [bB] | 
[V:2] B,,[B,A,F,] [B,A,F,] z | 
[V:1] [e'/e/][d'd][b/B/] [c'c][bB] | 
[V:2] ^G,,[DB,E,] E,,[D^G,E,] | 
[V:1] [b/B/][aA][e/E/] [bB][aA] | 
[V:2] A,,[ECA,] A,,[_ECA,] | 
[V:1] [b/d/B/][acA][b/d/B/] [c'/e/c/][b/d/B/][acA] | 
[V:2] D,[DB,G,] [D,/D,,/][E,/E,,/][F,F,,] | 
[V:1] [gBG] z!accent![g'2d'2b2g2] ]|:  
[V:2] [G,G,,] z!accent![G,2G,,2] ]|:  
[V:1]  [K:D] [acA]>B c/a/!accent![gcA] | 
[V:2]  [K:D] E,[CA,G,] A,,[CA,G,] | 
[V:1] [acA]>B c/a/!accent![gcA] | 
[V:2] E,[CA,G,] A,,[CA,G,] | 
[V:1] z [a/d/]A/ z [a/d/]A/ | 
[V:2] !accent![DD,]!accent![EE,]!accent![FF,]!accent![EE,] | 
[V:1] z/ [a/d/]z/A/ [ad]A | 
[V:2] !accent![DD,]!accent![CC,]!accent![B,B,,]!accent![A,A,,] | 
[V:1] [b^dB]>c d/b/!accent![adB] | 
[V:2] B,,[^DB,A,F,] ^D,[DB,A,] | 
[V:1] [b^dB]>c d/b/[adB] | 
[V:2] B,,[^DB,A,] ^D,[DB,A,] | 
[V:1] z [b/e/]B/ z [b/e/]B/ | 
[V:2] !accent![EE,]!accent![FF,]!accent![GG,]!accent![FF,] | 
[V:1] z/ [b/e/]z/B/ [be]B | 
[V:2] !accent![EE,]!accent![DD,]!accent![CC,]!accent![B,B,,] | 
[V:1] [c'/g/c/][^b/^B/][c'/c/][e'/e/]- [e'/e/][c'c][a/A/] | 
[V:2] E,[GCA,] A,,[GCA,] | 
[V:1] z/ [bgB][^a/A/][b2g2B2] | 
[V:2] E,[GCA,] A,,[GCA,] | 
[V:1] [b/f/B/][^a/A/][b/B/][d'/d/]- [d'/d/][bB][f/F/] | 
[V:2] D,[FDA,] A,,[FDA,] | 
[V:1] z/ [afA][^g/^G/] [afA][fA] | 
[V:2] D,[FDA,] A,,[FDA,] | 
[V:1] [eB][fB] [g/B/][bB][g/B/] | 
[V:2] [GG,][FF,][EE,][EB,G,] | 
[V:1] [fA][^e/^G/][f/A/] [g/B/][f/A/][=e=G] | 
[V:2] A,,[FDA,] A,,[GCA,] | 
[V:1] [dF]A B/AF/ | 
[V:2] [DD,][A,A,,] [B,/B,,/][A,A,,][F,/F,,/] | 
[V:1] D z {/ABc}d2 :|]|:  
[V:2] [D,D,,] z {/A,B,C}D2 :|]|:  
[V:1]  [K:G] ^A/[dB]F/ [c=A]^A/[d/B/]- | 
[V:2]  [K:G] A,,[CF,D,] D,,[CF,D,] | 
[V:1] [d/B/]F/[c/A/]^A/ [dB][c=A] | 
[V:2] A,,[CF,D,] D,,[CF,D,] | 
[V:1] ^A/[dB]D/ [BG]A/[d/B/]- | 
[V:2] G,,[B,G,D,] D,,[B,G,D,] | 
[V:1] [d/B/]D/G/A/ B/A/G/D/ | 
[V:2] G,,[B,G,D,] D,,[B,G,D,] | 
[V:1] z [fF]- [f/F/]c/d/[f/F/] | 
[V:2] A,,[CF,D,] D,,[CF,D,] | 
[V:1] z/ F/c/d/ f/d/c/A/ | 
[V:2] A,,[CF,D,] D,,[CF,D,] | 
[V:1] z [eBG]- [e/B/G/]B/d/e/ | 
[V:2] G,,[B,G,D,] D,,[B,G,D,] | 
[V:1] z/ G/B/d/ e/d/B/G/ | 
[V:2] G,,[B,G,D,] D,,[B,G,D,] | 
[V:1] ^A/[dB]F/ [c=A]^A/[d/B/]- | 
[V:2] A,,[CF,D,] D,,[CF,D,] | 
[V:1] [d/B/]F/[c/A/]^A/ [dB][c=A] | 
[V:2] A,,[CF,D,] D,,[CF,D,] | 
[V:1] ^A/[dB]D/ [BG]A/[d/B/]- | 
[V:2] G,,[B,G,D,] D,,[B,G,D,] | 
[V:1] [d/B/]D/G/A/ B/A/G/D/ | 
[V:2] G,,[B,G,D,] D,,[B,G,D,] | 
[V:1] e/_e/d/_d/ c/B/_B/A/ | 
[V:2] ^G,,[DB,E,] A,,[CA,E,] | 
[V:1] d/_d/c/B/ _B/A/_A/G/ | 
[V:2] F,,[CA,D,] G,,[B,G,D,] | 
[V:1] E/GE/ D/G/B/d/ | 
[V:2] C,[CA,E,] D,[DB,G,] | 
[V:1] [B/^C/]E/[A/=C/]D/ [GDB,] z :|]  
[V:2] [A,A,,][D,D,,] [G,G,,] z :|]  


